images/icon-grass.svg

<svg width="28" height="29" viewBox="0 0 28 29" fill="none" xmlns="http://www.w3.org/2000/svg">
<rect y="0.358887" width="28" height="28" rx="4" fill="#83D187"/>
<path d="M13.8822 12.6007C14.0516 12.6634 14.2177 12.5099 14.1616 12.3465C13.7763 11.2253 12.3814 10.807 11.0848 11.8018C10.4027 12.3251 10.1464 12.4363 10.1399 12.4391C10.5896 12.8637 11.1033 14.2885 12.2244 14.4461C13.4593 14.6576 14.5523 13.51 13.6581 12.9849C13.07 12.6396 12.3776 12.4391 11.6353 12.4391C12.4134 12.2734 13.1902 12.3444 13.8822 12.6007Z" fill="#DDFFDF"/>
<path d="M19.4744 11.8017C17.2361 10.0846 15.8086 12.7925 16.6959 12.5241C17.3261 12.3334 18.0151 12.2919 18.7061 12.439C17.5352 12.439 16.4559 12.9458 15.7363 13.7707C15.7954 12.4744 15.8848 11.6629 15.9884 11.0593C16.5865 11.0399 17.3837 10.5838 17.8215 9.78557C18.5762 8.50995 18.2262 7.20202 18.1136 6.37671C17.5238 6.91906 14.9478 6.28357 13.9266 7.93631C13.4754 8.66639 13.6066 9.5548 14.0811 10.2049C14.2313 10.4107 14.5905 10.312 14.6008 10.0622C14.6453 8.9757 15.2179 8.15479 16.2853 7.70011C15.8063 8.28623 15.4918 8.94244 15.3294 9.62067C15.0768 10.6772 14.8131 11.3703 14.7162 14.7378C14.7064 15.0793 14.9993 15.3619 15.361 15.3577C15.6229 15.3546 15.8472 15.1976 15.9479 14.9693C16.101 14.6221 16.3503 14.2627 16.756 13.9335C17.1414 14.3359 17.728 14.55 18.335 14.446C19.4513 14.2891 19.9723 12.8612 20.4194 12.439C20.4128 12.4362 20.1565 12.3251 19.4744 11.8017Z" fill="#DDFFDF"/>
<path d="M22.7649 15.9975C22.0651 15.5492 21.3035 15.8687 20.9538 16.0594L16.5647 19.0933L13.9947 19.0939L13.3523 18.4871H15.7124C16.4222 18.4871 17.2172 18.0504 17.2172 17.2732C17.2172 16.4481 16.4222 16.0594 15.7124 16.0594H14.828C14.1709 16.0594 13.4031 16.1147 12.8618 15.841C12.3474 15.5938 11.7551 15.4532 11.1229 15.4532C10.0612 15.4532 9.11104 15.8529 8.45992 16.4833L5 19.7001L8.85489 23.3409L10.1399 21.5205H16.2119C16.8595 21.5205 17.4846 21.2961 17.9687 20.89L22.8088 16.8292C23.0779 16.6035 23.0627 16.1884 22.7649 15.9975Z" fill="#DDFFDF"/>
</svg>

<svg xmlns="http://www.w3.org/2000/svg" width="28" height="29" fill="none"><rect width="28" height="28" y=".359" fill="#83D187" rx="4"/><path fill="#DDFFDF" d="M13.882 12.6c.17.063.336-.09.28-.253-.386-1.122-1.78-1.54-3.077-.545-.682.523-.939.634-.945.637.45.425.963 1.85 2.084 2.007 1.235.212 2.328-.936 1.434-1.461a3.985 3.985 0 0 0-2.023-.546 4.04 4.04 0 0 1 2.247.162ZM19.474 11.802c-2.238-1.717-3.665.99-2.778.722a4.03 4.03 0 0 1 2.01-.085c-1.17 0-2.25.507-2.97 1.332.06-1.297.149-2.108.252-2.712.599-.02 1.396-.475 1.834-1.273.754-1.276.404-2.584.292-3.41-.59.543-3.166-.092-4.187 1.56-.452.73-.32 1.619.154 2.269.15.206.51.107.52-.143.044-1.086.617-1.907 1.684-2.362a4.787 4.787 0 0 0-.956 1.92c-.252 1.057-.516 1.75-.613 5.118-.01.341.283.624.645.62a.648.648 0 0 0 .587-.389c.153-.347.402-.706.808-1.035.385.402.972.616 1.579.512 1.116-.157 1.637-1.585 2.084-2.007-.006-.003-.262-.114-.945-.637ZM22.765 15.998c-.7-.449-1.462-.13-1.811.061l-4.39 3.034h-2.57l-.642-.606h2.36c.71 0 1.505-.437 1.505-1.214 0-.825-.795-1.214-1.505-1.214h-.884c-.657 0-1.425.056-1.966-.218a4.012 4.012 0 0 0-1.74-.388c-1.06 0-2.011.4-2.662 1.03L5 19.7l3.855 3.64 1.285-1.82h6.072c.648 0 1.273-.224 1.757-.63l4.84-4.06a.514.514 0 0 0-.044-.832Z"/></svg>
